X:1727
T:Bonnets So Blue
% Nottingham Music Database
P:AAB
S:FTB 1 p 47, via EF
M:4/4
K:D
M:6/8
P:A
A|"D"ded def|"A7"ABA ABc|"A7"dfb afd|"A7"efe e2A|
"D"ded def|"A7"ABA A2b|"Bm"agf "A7"ageF|"D"d3 d2:|
P:B
e/2d/2|"A"cde "E7"efe|"A"A3 A2d|"A"cde "A7"efg|"D"a3 "A7"a2g|"D"f2e d2c|\
"Bm"B2c d2e|
"Bm"fgf "F#7"edc|"Bm"B3 "A7"A3|"D"def def|"D"def d2A|"D"dfb agf|
"Em"egf "A7"e2A|"D"def def|"Bm"def d2b|"Em"agf "A7"ageF|"D"d3 d2:|


